icons/expo.svg

<svg height="25" viewBox="0 0 28 25" width="28" xmlns="http://www.w3.org/2000/svg"><path d="m0 21.6075067c.04970231.6075997.26287166 1.2169478.82148545 2.0350077.66254018.9702053 1.80251975 1.5033606 2.63406502.6479824.56113713-.5772556 6.62882223-11.18378 9.55301253-15.20293459.3510881-.49612773 1.0764016-.49612773 1.4276906 0 2.9241906 4.01915459 8.9918756 14.62567899 9.5530128 15.20293459.831344.8553782 1.9715247.3222229 2.634065-.6479824.6522791-.9552279.833356-1.6258844.833356-2.3414732 0-.487391-9.4497988-18.07361072-10.4014584-19.53744755-.915212-1.40795991-1.1947897-1.71420229-2.7424935-1.76359365h-1.1807034c-1.5478195.04939136-1.8272525.35563374-2.7426455 1.76359365-.93169444 1.43342961-10.01252947 18.32640165-10.3893866 19.48523885z" fill="#000020" fill-rule="evenodd"/></svg>

<?xml version="1.0" encoding="UTF-8"?>
<svg width="28px" height="25px" viewBox="0 0 28 25" version="1.1" xmlns="http://www.w3.org/2000/svg" xmlns:xlink="http://www.w3.org/1999/xlink">
    <!-- Generator: Sketch 56.2 (81672) - https://sketch.com -->
    <title>expo</title>
    <desc>Created with Sketch.</desc>
    <g id="Page-1" stroke="none" stroke-width="1" fill="none" fill-rule="evenodd">
        <g id="expo" fill="#000020">
            <path d="M0,21.6075067 C0.0497023053,22.2151064 0.262871659,22.8244545 0.821485448,23.6425144 C1.48402563,24.6127197 2.6240052,25.145875 3.45555047,24.2904968 C4.0166876,23.7132412 10.0843727,13.1067168 13.008563,9.08756221 C13.3596511,8.59143448 14.0849646,8.59143448 14.4362536,9.08756221 C17.3604442,13.1067168 23.4281292,23.7132412 23.9892664,24.2904968 C24.8206104,25.145875 25.9607911,24.6127197 26.6233314,23.6425144 C27.2756105,22.6872865 27.4566874,22.01663 27.4566874,21.3010412 C27.4566874,20.8136502 18.0068886,3.22743048 17.055229,1.76359365 C16.140017,0.355633739 15.8604393,0.0493913607 14.3127355,0 L13.1320321,0 C11.5842126,0.0493913607 11.3047796,0.355633739 10.3893866,1.76359365 C9.45769216,3.19702326 0.376857133,20.0899953 0,21.2488325 L0,21.6075067 Z" id="Path"></path>
        </g>
    </g>
</svg>
